X:1
T:Au monde estoint douleur
T:L'Huyllier
T:Source : Livre XX de 28 chansons nouvelles à 4 parties---Paris---P.Attaingnant---1546. Editor : André Vierendeels (16/07/18) Notes : Original clefs : G2, C2, C3, F3 Original note values have been halved Original note values have been quartered in 3-beat measures Editorial accidentals above the staff Square brackets indicate ligatures
T:Au monde estoint douleur
T:©
T:©
T:©
T:©
C:L'Huyllier
Z:©
%%score [ 1 2 3 4 ]
L:1/8
Q:1/4=120
M:2/2
K:F
V:1 treble nm="Soprano" snm="S"
V:2 treble nm="Alto" snm="A"
V:3 treble-8 nm="Tenor" snm="T"
V:4 bass nm="Bass" snm="B"
V:1
 G4 B2 B2- | BA A4 G2 | A2 F2 G4- | G2 B2 A2 G2 | F2 A2 c2 c2 | GFGA B4 | A4 d4 | B2 G4 G2 | %8
w: Au mon- *|* * * d'es-|toint dou- leur|_ et vo- lu-|pté tous- iours en|noi- * * * *|s'en dis-|cor- d'et en|
w: Leur de- bat|_ _ vint ius-|qu'à la ma-|* * i- es-|té de Iu- pi-|ter _ _ _ _|qui veult|du faict en-|
"^#" A2 B3 A G2- |[M:2/4] G2 F2 |1 G4 :|2[M:2/2] G8 || z2 d2 d2 d2 | f4 z2 d2 | d2 d2 fedc | %15
w: guer- * * *||re,|rir,|leurs tes- tes|print, leurs|tes- tes print , _ _|
w: quer- * * *|||||||
 d2 G3 G B2 | A2 A2 G4 | F3 G A4- | A2 GF G4 | F2 A2 c2 G2 | B4 A2 GF | G4 z2 d2 | e2 g2 f2 e2- | %23
w: _ leurs che- veulx|mel- le et|ser- * *||re l'ung par- my|l'aul- * * *|tre, et|tant s'en- tre- las-|
w: ||||||||
 e2 d4 c2 |[M:2/4] d4 |:[M:3/4] B2 G2 B2 | A4 A2 | G4 B2 | A4 G2 | F2 F2 z2 |[M:2/2] d4 d2 d2 | %31
w: * * sè-|rent,|que vo- lu-|pté et|dou- leur|sur la|ter- re,|en- sem- ble|
w: ||||||||
 f3 e d2 c2 | B2 A3 G G2- | G2 F2 !fermata!G4 :| %34
w: sont de- puys ne|se lays- * sè-|* * rent.|
w: |||
V:2
 D4 B,2 G,2 | A,4 D4 | FEDC B,4 | z2 F2 F2 E2 | D2 F2 E2 C2 | E4 D2 G2- | G2 FE F4 | D2 G4 E2 | %8
w: Au mon- d'es-|toint dou-|leur _ _ _ _|et vo- lu-|pté tous- iours en|noi- * *||s'et en dis-|
w: Leur de- bat|vint ius-|qu'à _ _ _ _|la ma- i-|es- té de Iu-|* * pi-||ter qui veult|
 C2 D4 C2 |[M:2/4] D4 |1 B,4 :|2[M:2/2] B,2 z G G2 G2 || B6 AG | FEFG A4 | z2 D2 D2 D2 | %15
w: cor- d'et en|guer-|re,|rir, leurs tes- tes|print, _ _|_ _ _ _ _|leurs tes- tes|
w: du faict en-|que-||||||
 B,2 D2 G2 G2 | E2 F2 D4 | D2 D4 F2 | C2 E4 DC | D2 F2 E4 | D2 D2 F2 C2 | E2 D2 G4- | G4 z2 G2 | %23
w: print, leurs che- veulx|mel- l'et ser-|re l'ung par-|my l'aul- * *||tre, l'ung par- my|l'aul- * tre,|_ s'en-|
w: ||||||||
 B2 B2 A4 |[M:2/4] F4 |:[M:3/4] D2 D2 D2 | F4 F2 | _E4 F2 | F4 D2 | D2 D2 z2 |[M:2/2] G4 F2 G2 | %31
w: tre- las- sè-|rent,|que vo- lu-|pté et|dou- leur|sur la|ter- re,|en- sem- ble|
w: ||||||||
 A4 z2 A2 | G2 F2 _E2 E2 | D4 !fermata!D4 :| %34
w: sont de-|puys ne se lays-|sè- rent.|
w: |||
V:3
 G4 d2 d2 | c2 A2 B2 B2 |"^b" A2 B2 G2 B2 | e2 d2 c2 B2 | A8 | z2 c2 B2 G2 | d3 c/B/ A2 d2- | %7
w: Au mon- d'es-|toint dou- leur et|vo- lu- pté, dou-|leur et vo- lu-|pté,|tous- iours en|noi- * * * s'en|
w: Leur de- bat|vint ius- qu'à _|la ma- i- es-|té de Iu- pi-|ter|qui veult du|faict _ _ _ en-|
 d2 B2 G2 cB | AG F4 G2 |[M:2/4] A4 |1 G4 :|2[M:2/2] G2 G2 B3 c || d4 z2 d2 | d2 d2 f3 e | %14
w: _ dis- cor- d'et _|_ _ _ en|guer-|re,|rir, leurs tes- tes|print, leus|tes- tes print, _|
w: ||quer-|||||
 dc B4 f2 |"^b" d2 B2 e2 d2 | c4 B4 | A4 z2 A2- | A2 c4 G2 | B2 FG AB c2- | c2 B2 c3 A | B4 G2 d2 | %22
w: _ _ _ leurs|che- veulx mel- l'et|ser- *|re l'ung|_ par- my|l'aul- * * * * *||tre, et tant|
w: ||||||||
 gfed c2 e2 | f2 g2 e4 |[M:2/4] d4 |:[M:3/4] G2 B2 B2 | c4 d2 | B4 d2 | c4 B2 | A2 A2 z2 | %30
w: s'en- * * * * tre-|las- * sè-|rent,|que vo- lu-|pté et|dou- leur|sur la|ter- re,|
w: ||||||||
[M:2/2] B4 A2 B2 | c2 d2 f3 e | d3 c B2 c2 | A4 !fermata!G4 :| %34
w: en- sem- ble|sont de- puys ne|se lays- sè- *|* rent.|
w: ||||
V:4
 G,4 G,2 B,2 | F,2 F,2 G,4 |"^b" D,4 E,3 D, | C,2 B,,2 F,2 G,2 | D,4 z2 F,2 | E,2 C,2 G,4 | D,8 | %7
w: Au mon- d'es-|toint dou- leur|et vo- *|* * * lu-|pté, tous-|iours en noi-|s'en|
w: Leur de- bat|vint ius- quà|la ma- i-|es- té Iu- pi-|ter, qui|veult du faict|en-|
"^b" G,4 E,2 C,2 | F,E,D,C, B,,2 E,2 |[M:2/4] D,4 |1 G,4 :|2[M:2/2] G,4 z2 G,2 || G,2 G,2 B,4- | %13
w: dis- cor- d'et|en _ _ _ _ _|guer-|re,|rir, leurs|tes- tes print,|
w: quer- * *||||||
 B,2 A,G, F,E,D,C, | B,,4 z2 D,2 | G,6 G,2 | A,2 F,2 G,4 | D,4 z2 D,2 | F,2 C,2 E,4 |"^#" D,4 C,4 | %20
w: _ _ _ _ _ _ _|* leurs|che- veulx|mel- l'et ser-|re l'ung|par- my l'aul-|* tre,|
w: |||||||
 G,4 F,2 A,2 | G,8 | C,2 G,2 A,2 C2 | B,2 G,2 A,4 |[M:2/4] D,4 |:[M:3/4] G,2 G,2 G,2 | F,4 D,2 | %27
w: l'ung par- my|l'aul-|tre s'enlas- sè- *||rent,|que vo- lu-|pté et|
w: |||||||
 _E,4 B,,2 | F,4 G,2 | D,2 D,2 z2 |[M:2/2] G,4 D,2 G,2 | F,E,D,C, B,,2 F,2 | G,2 D,2 _E,2 C,2 | %33
w: dou- leur|sur la|ter- re,|en- sem- ble|sont _ _ _ _ de-|puys ne se lays-|
w: ||||||
 D,4 !fermata!G,4 :| %34
w: sè- rent.|
w: |

